X: 11603
T: Egg, The
R: jig
M: 6/8
K: Adorian
B|:AGE EDE|~G2A c2d|ege efe|dcA dcA|
AGE EDE|~G2A c2d|ege edc|1 ABA A2B:|2 ABA AB/c/d||
|:egg agg|egg dgg|cgg agg|ege dcA|
AGE EDE|~G2A c2d|ege edc|1 ABA AB/c/d:|2 ABA A2B||

